packages/icons/src/motorcycle.svg

<svg width="24" height="24" viewBox="0 0 24 24" fill="none" xmlns="http://www.w3.org/2000/svg">
<path d="M6.19967 18C5.03776 18 4.04734 17.5816 3.2284 16.7448C2.40947 15.908 2 14.896 2 13.7087C2 12.5215 2.40947 11.5095 3.2284 10.6727C4.04734 9.83583 5.03776 9.41741 6.19967 9.41741H15.8759L13.913 7.39526H10.7978V6H14.4809L17.8061 9.41741C19.057 9.42807 20.0687 9.86893 20.8412 10.74C21.6137 11.611 22 12.6042 22 13.7196C22 14.9064 21.59 15.9165 20.7699 16.7499C19.9497 17.5833 18.9579 18 17.7943 18C16.6421 18 15.6595 17.5816 14.8465 16.7448C14.0335 15.908 13.627 14.896 13.627 13.7087C13.627 13.4898 13.6397 13.2665 13.6651 13.0389C13.6905 12.8112 13.7458 12.5944 13.8311 12.3883L11.6753 14.5917H10.3066C10.1049 15.5965 9.62086 16.4157 8.85456 17.0494C8.08827 17.6831 7.20331 18 6.19967 18ZM17.7992 16.6097C18.5875 16.6097 19.2585 16.3272 19.8123 15.7623C20.366 15.1973 20.6429 14.5129 20.6429 13.7091C20.6429 12.9053 20.3676 12.2208 19.8169 11.6556C19.2662 11.0903 18.5975 10.8077 17.8109 10.8077C17.0242 10.8077 16.3564 11.092 15.8075 11.6606C15.2585 12.2292 14.9841 12.9109 14.9841 13.7058C14.9841 14.5008 15.2562 15.1835 15.8004 15.754C16.3447 16.3245 17.011 16.6097 17.7992 16.6097ZM6.19967 16.6097C6.8049 16.6097 7.3655 16.4246 7.88146 16.0542C8.39743 15.6838 8.75508 15.1263 8.95443 14.3817H6.6097V13.0467H8.95443C8.76961 12.304 8.41472 11.7452 7.88975 11.3702C7.36476 10.9952 6.80142 10.8077 6.19973 10.8077C5.40536 10.8077 4.73217 11.0902 4.18018 11.6552C3.62819 12.2201 3.35219 12.9045 3.35219 13.7083C3.35219 14.5121 3.62846 15.1966 4.181 15.7619C4.73354 16.3271 5.40643 16.6097 6.19967 16.6097Z" fill="black"/>
</svg>

<svg xmlns="http://www.w3.org/2000/svg" width="24" height="24" fill="none" viewBox="0 0 24 24">
  <path fill="#000" d="M6.2 18c-1.162 0-2.153-.418-2.972-1.255S2 14.896 2 13.709c0-1.188.41-2.2 1.228-3.036.82-.837 1.81-1.256 2.972-1.256h9.676l-1.963-2.022h-3.115V6h3.683l3.325 3.417c1.251.011 2.263.452 3.035 1.323.773.871 1.159 1.864 1.159 2.98 0 1.186-.41 2.196-1.23 3.03-.82.833-1.812 1.25-2.976 1.25-1.152 0-2.135-.418-2.947-1.255-.813-.837-1.22-1.849-1.22-3.036 0-.22.013-.442.038-.67.026-.228.08-.445.166-.65l-2.156 2.203h-1.368c-.202 1.005-.686 1.824-1.452 2.457A4.044 4.044 0 0 1 6.2 18Zm11.6-1.39c.787 0 1.459-.283 2.012-.848.554-.565.83-1.25.83-2.053 0-.804-.274-1.488-.825-2.053a2.696 2.696 0 0 0-2.006-.848 2.68 2.68 0 0 0-2.004.853 2.84 2.84 0 0 0-.823 2.045c0 .795.272 1.478.816 2.048a2.66 2.66 0 0 0 2 .856Zm-11.6 0a2.82 2.82 0 0 0 1.681-.556c.516-.37.874-.928 1.073-1.672H6.61v-1.335h2.344c-.184-.743-.54-1.302-1.064-1.677-.525-.375-1.089-.562-1.69-.562-.795 0-1.468.282-2.02.847s-.828 1.25-.828 2.053c0 .804.276 1.489.829 2.054a2.716 2.716 0 0 0 2.019.848Z"/>
</svg>
